resources/svg/regular/arrow-from-right.svg

<svg xmlns="http://www.w3.org/2000/svg" fill="currentColor" stroke="none" viewBox="0 0 24 24"><path d="M18 6h2v12h-2zm-2 5H7.414l4.293-4.293-1.414-1.414L3.586 12l6.707 6.707 1.414-1.414L7.414 13H16z"/></svg>

<svg xmlns="http://www.w3.org/2000/svg" fill="currentColor" stroke="none" viewBox="0 0 24 24"><path d="M18 6H20V18H18zM16 11L7.414 11 11.707 6.707 10.293 5.293 3.586 12 10.293 18.707 11.707 17.293 7.414 13 16 13z"/></svg>
